img/d/dext.com.svg

<svg xmlns="http://www.w3.org/2000/svg" viewBox="0 0 92 46" fill="#FC4C02"><path d="M69.3797 25.0805L74.4661 7.33036C74.5855 6.91424 74.17 6.52051 73.6115 6.52051H64.4595L62.2731 20.4749L60.0868 6.52051H50.9347C50.3762 6.52051 49.9608 6.91424 50.0801 7.33036L55.1665 25.0805L49.8441 44.7314C49.732 45.1457 50.1464 45.5339 50.7007 45.5339H59.9184L62.2731 30.8327L64.6276 45.5339H73.8456C74.3996 45.5339 74.8143 45.1457 74.7022 44.7314L69.3797 25.0805Z"/><path d="M13.0696 8.09422C13.0696 7.04477 12.4875 6.52012 11.3234 6.52012H9.92119V39.1768H11.2706C12.4611 39.1768 13.0696 38.6521 13.0696 37.6025V8.09422ZM12.2494 0.163086C19.1283 0.163086 23.1496 2.98865 23.1496 8.53813V37.2998C23.1496 40.004 22.1708 42.0424 20.2392 43.4349C18.2815 44.8274 15.6094 45.5336 12.2494 45.5336H0.874736C0.391605 45.5336 0 45.2349 0 44.8663V0.830415C0 0.46202 0.391605 0.163086 0.874736 0.163086H12.2494Z"/><path d="M35.9281 13.2205V20.2038H38.9178V13.2205C38.9178 12.171 38.4415 11.6464 37.5155 11.6464C36.4837 11.6464 35.9546 12.171 35.9281 13.2205ZM48.2833 14.4314V24.4204C48.2833 24.789 47.8917 25.0876 47.4085 25.0876H35.9281V38.6687C35.9281 39.7182 36.4837 40.243 37.5684 40.243C38.4945 40.243 38.9706 39.779 38.9706 38.8704V27.4085H47.4085C47.8917 27.4085 48.2833 27.7072 48.2833 28.0758V38.7899C48.2833 41.0301 47.3574 42.7657 45.4791 44.037C43.6005 45.3085 40.9547 45.934 37.5684 45.934C30.2664 45.934 26.2979 43.0078 26.2979 37.7V15.501C26.2979 9.16421 30.0284 6.15723 37.5155 6.15723C44.7118 6.15723 48.3099 8.92216 48.2833 14.4314Z"/><path d="M90.9071 6.52012H86.7161V0.830415C86.7161 0.461693 86.3245 0.163086 85.8412 0.163086H78.6161L76.8152 6.44821C76.8018 6.49495 76.7949 6.54268 76.7949 6.59057V12.877V36.524V38.3893C76.7949 40.6294 77.7211 42.3652 79.5996 43.6364C81.3866 44.8462 83.8714 45.4681 87.0245 45.5261C87.1179 45.5283 87.2127 45.5294 87.3076 45.5307C87.3313 45.5309 87.3779 45.5315 87.3779 45.5315C87.4313 45.5322 87.4833 45.5333 87.5371 45.5333H90.9071C91.3904 45.5333 91.782 45.2347 91.782 44.866V39.1766H88.5163C87.3256 39.1766 86.7171 38.6518 86.7171 37.6025L86.7161 12.8553H91.782V7.18745C91.782 6.81906 91.3904 6.52012 90.9071 6.52012Z"/></svg>

<svg xmlns="http://www.w3.org/2000/svg" viewBox="0 0 92 46" fill="#FC4C02"><path d="m69.38 25.08 5.086-17.75c.12-.416-.296-.81-.854-.81H64.46l-2.187 13.955L60.087 6.52h-9.152c-.559 0-.974.393-.855.81l5.087 17.75-5.323 19.65c-.112.415.302.803.857.803h9.217l2.355-14.701 2.355 14.7h9.218c.554 0 .968-.387.856-.802l-5.322-19.65ZM13.07 8.094c0-1.05-.582-1.574-1.747-1.574H9.921v32.657h1.35c1.19 0 1.799-.525 1.799-1.575V8.095Zm-.82-7.93c6.878 0 10.9 2.825 10.9 8.374V37.3c0 2.704-.98 4.742-2.91 6.135-1.958 1.392-4.63 2.099-7.99 2.099H.874c-.483 0-.875-.3-.875-.668V.83C0 .462.392.163.875.163h11.374ZM35.928 13.22v6.984h2.99V13.22c0-1.049-.477-1.574-1.402-1.574-1.032 0-1.561.525-1.588 1.574Zm12.355 1.211v9.99c0 .368-.391.667-.875.667h-11.48v13.58c0 1.05.556 1.575 1.64 1.575.927 0 1.403-.464 1.403-1.373V27.41h8.438c.483 0 .874.298.874.667V38.79c0 2.24-.926 3.976-2.804 5.247-1.879 1.272-4.524 1.897-7.91 1.897-7.303 0-11.271-2.926-11.271-8.234V15.501c0-6.337 3.73-9.344 11.218-9.344 7.196 0 10.794 2.765 10.767 8.274ZM90.907 6.52h-4.19V.83c0-.368-.392-.667-.876-.667h-7.225l-1.8 6.285a.516.516 0 0 0-.021.143v31.798c0 2.24.926 3.976 2.805 5.247 1.787 1.21 4.271 1.832 7.425 1.89l.283.005h.07l.16.002h3.37c.482 0 .874-.298.874-.667v-5.69h-3.266c-1.19 0-1.799-.524-1.799-1.574V12.855h5.065V7.187c0-.368-.392-.667-.875-.667Z"/></svg>
